static/img/kroki/329e8f065a8c015f80171006d481a7b2.svg

<?xml version="1.0" encoding="us-ascii" standalone="no"?><svg xmlns="http://www.w3.org/2000/svg" xmlns:xlink="http://www.w3.org/1999/xlink" contentStyleType="text/css" height="374px" preserveAspectRatio="none" style="width:236px;height:374px;" version="1.1" viewBox="0 0 236 374" width="236px" zoomAndPan="magnify"><defs/><g><!--class gcp_packet_mirroring--><g id="elem_gcp_packet_mirroring"><rect codeLine="23" fill="#3D176E" height="39.7891" id="gcp_packet_mirroring" rx="2.5" ry="2.5" style="stroke:#000D19;stroke-width:0.5;" width="222" x="7" y="328.58"/><ellipse cx="22" cy="348.4745" fill="#ADD1B2" rx="11" ry="11" style="stroke:#181818;stroke-width:1.0;"/><path d="M24.9688,354.1152 Q24.3906,354.412 23.75,354.5527 Q23.1094,354.7089 22.4063,354.7089 Q19.9063,354.7089 18.5781,353.0683 Q17.2656,351.412 17.2656,348.287 Q17.2656,345.162 18.5781,343.5058 Q19.9063,341.8495 22.4063,341.8495 Q23.1094,341.8495 23.75,342.0058 Q24.4063,342.162 24.9688,342.4589 L24.9688,345.1777 Q24.3438,344.5995 23.75,344.3339 Q23.1563,344.0527 22.5313,344.0527 Q21.1875,344.0527 20.5,345.1308 Q19.8125,346.1933 19.8125,348.287 Q19.8125,350.3808 20.5,351.4589 Q21.1875,352.5214 22.5313,352.5214 Q23.1563,352.5214 23.75,352.2558 Q24.3438,351.9745 24.9688,351.3964 L24.9688,354.1152 Z " fill="#000000"/><text fill="#D9B8FF" font-family="Helvetica" font-size="17" lengthAdjust="spacing" textLength="180" x="41" y="354.3598">gcp_packet_mirroring</text></g><!--class gcp_resource--><g id="elem_gcp_resource"><rect codeLine="26" fill="#3D176E" height="39.7891" id="gcp_resource" rx="2.5" ry="2.5" style="stroke:#000D19;stroke-width:0.5;" width="150" x="43" y="167.79"/><ellipse cx="58" cy="187.6845" fill="#ADD1B2" rx="11" ry="11" style="stroke:#181818;stroke-width:1.0;"/><path d="M60.9688,193.3252 Q60.3906,193.622 59.75,193.7627 Q59.1094,193.9189 58.4063,193.9189 Q55.9063,193.9189 54.5781,192.2783 Q53.2656,190.622 53.2656,187.497 Q53.2656,184.372 54.5781,182.7158 Q55.9063,181.0595 58.4063,181.0595 Q59.1094,181.0595 59.75,181.2158 Q60.4063,181.372 60.9688,181.6689 L60.9688,184.3877 Q60.3438,183.8095 59.75,183.5439 Q59.1563,183.2627 58.5313,183.2627 Q57.1875,183.2627 56.5,184.3408 Q55.8125,185.4033 55.8125,187.497 Q55.8125,189.5908 56.5,190.6689 Q57.1875,191.7314 58.5313,191.7314 Q59.1563,191.7314 59.75,191.4658 Q60.3438,191.1845 60.9688,190.6064 L60.9688,193.3252 Z " fill="#000000"/><text fill="#D9B8FF" font-family="Helvetica" font-size="17" lengthAdjust="spacing" textLength="108" x="77" y="193.5698">gcp_resource</text></g><!--class resource--><g id="elem_resource"><rect codeLine="29" fill="#3D176E" height="39.7891" id="resource" rx="2.5" ry="2.5" style="stroke:#000D19;stroke-width:0.5;" width="113" x="61.5" y="7"/><ellipse cx="76.5" cy="26.8945" fill="#ADD1B2" rx="11" ry="11" style="stroke:#181818;stroke-width:1.0;"/><path d="M79.4688,32.5352 Q78.8906,32.832 78.25,32.9727 Q77.6094,33.1289 76.9063,33.1289 Q74.4063,33.1289 73.0781,31.4883 Q71.7656,29.832 71.7656,26.707 Q71.7656,23.582 73.0781,21.9258 Q74.4063,20.2695 76.9063,20.2695 Q77.6094,20.2695 78.25,20.4258 Q78.9063,20.582 79.4688,20.8789 L79.4688,23.5977 Q78.8438,23.0195 78.25,22.7539 Q77.6563,22.4727 77.0313,22.4727 Q75.6875,22.4727 75,23.5508 Q74.3125,24.6133 74.3125,26.707 Q74.3125,28.8008 75,29.8789 Q75.6875,30.9414 77.0313,30.9414 Q77.6563,30.9414 78.25,30.6758 Q78.8438,30.3945 79.4688,29.8164 L79.4688,32.5352 Z " fill="#000000"/><text fill="#D9B8FF" font-family="Helvetica" font-size="17" lengthAdjust="spacing" textLength="71" x="95.5" y="32.7798">resource</text></g><!--reverse link gcp_resource to gcp_packet_mirroring--><g id="link_gcp_resource_gcp_packet_mirroring"><path codeLine="32" d="M118,225.84 C118,256.36 118,297.69 118,328.25 " fill="none" id="gcp_resource-backto-gcp_packet_mirroring" style="stroke:#FFAF37;stroke-width:2.0;"/><polygon fill="none" points="118,207.84,112,225.84,124,225.84,118,207.84" style="stroke:#FFAF37;stroke-width:2.0;"/></g><!--reverse link resource to gcp_resource--><g id="link_resource_gcp_resource"><path codeLine="33" d="M118,65.05 C118,95.57 118,136.9 118,167.46 " fill="none" id="resource-backto-gcp_resource" style="stroke:#FFAF37;stroke-width:2.0;"/><polygon fill="none" points="118,47.05,112,65.05,124,65.05,118,47.05" style="stroke:#FFAF37;stroke-width:2.0;"/></g><!--SRC=[XP9BQyCm48Jl-XM2d0rsG-iOUaaDfRs4qlGUP6jb2rkIMSaDwUE_rswQ8Z-IN6S-TcQNBIK72gfn1wf0PO2Ms4hgXY5JT8rezgcf3TA544miux7vQBIx2coO0le4zJiucRCnyLRAlD9WBRtnh0UMLmMQLlFZU8TCsyu2xJmghPcrQ-TGPgq3hmnFifKGOt8yTB7aKNm74ymW1_n3mZ3aKJ96haPTtFkVsCeFe95_j8rnCAavYVYbBhRi2Q_aPD6JVxRZ2-DSweBUUjhhiHDgm86-BHat-vuMhBP-Z7M0ODoXWNIo5IGhBk9P-FaSJFB-TBJ8crtJ8U1sIdPFX7ts9o7VdezWJOiv-FfG6r3tNq4Gp0ucCyn98Zy0]--></g></svg>

<svg xmlns="http://www.w3.org/2000/svg" width="236" height="374" viewBox="0 0 236 374"><rect width="222" height="39.789" x="7" y="328.58" fill="#3D176E" rx="2.5" ry="2.5" style="stroke:#000d19;stroke-width:.5"/><circle cx="22" cy="348.474" r="11" fill="#ADD1B2" style="stroke:#181818;stroke-width:1"/><path d="M24.969 354.115q-.578.297-1.219.438-.64.156-1.344.156-2.5 0-3.828-1.64-1.312-1.657-1.312-4.782t1.312-4.781q1.328-1.656 3.828-1.656.703 0 1.344.156.656.156 1.219.453v2.719q-.625-.579-1.219-.844-.594-.281-1.219-.281-1.343 0-2.031 1.078-.687 1.062-.687 3.156t.687 3.172q.688 1.062 2.031 1.062.625 0 1.219-.265.594-.281 1.219-.86z"/><text x="41" y="354.36" fill="#D9B8FF" font-family="Helvetica" font-size="17" textLength="180">gcp_packet_mirroring</text><rect width="150" height="39.789" x="43" y="167.79" fill="#3D176E" rx="2.5" ry="2.5" style="stroke:#000d19;stroke-width:.5"/><circle cx="58" cy="187.685" r="11" fill="#ADD1B2" style="stroke:#181818;stroke-width:1"/><path d="M60.969 193.325q-.578.297-1.219.438-.64.156-1.344.156-2.5 0-3.828-1.64-1.312-1.657-1.312-4.782t1.312-4.781q1.328-1.656 3.828-1.656.703 0 1.344.156.656.156 1.219.453v2.719q-.625-.578-1.219-.844-.594-.281-1.219-.281-1.343 0-2.031 1.078-.687 1.062-.687 3.156t.687 3.172q.688 1.062 2.031 1.062.625 0 1.219-.265.594-.281 1.219-.86z"/><text x="77" y="193.57" fill="#D9B8FF" font-family="Helvetica" font-size="17" textLength="108">gcp_resource</text><rect width="113" height="39.789" x="61.5" y="7" fill="#3D176E" rx="2.5" ry="2.5" style="stroke:#000d19;stroke-width:.5"/><circle cx="76.5" cy="26.895" r="11" fill="#ADD1B2" style="stroke:#181818;stroke-width:1"/><path d="M79.469 32.535q-.578.297-1.219.438-.64.156-1.344.156-2.5 0-3.828-1.64-1.312-1.657-1.312-4.782t1.312-4.781q1.328-1.656 3.828-1.656.703 0 1.344.156.656.156 1.219.453v2.719q-.625-.578-1.219-.844-.594-.281-1.219-.281-1.344 0-2.031 1.078-.687 1.062-.687 3.156T75 29.879q.688 1.062 2.031 1.062.625 0 1.219-.265.594-.281 1.219-.86z"/><text x="95.5" y="32.78" fill="#D9B8FF" font-family="Helvetica" font-size="17" textLength="71">resource</text><path fill="none" d="M118 225.84v102.41m0-120.41-6 18h12zm0-142.79v102.41m0-120.41-6 18h12z" style="stroke:#ffaf37;stroke-width:2"/></svg>
